X:1
T:A Mighty Fortress Is Our God
T:A Mighty Fortress Is Our God
T:Martin Luther, 1529
T:Martin Luther,  tr. Frederic Hedge, 1853
T:Public Domain Courtesy of the Cyber Hymnal™
T:Public Domain Courtesy of the Cyber Hymnal™
C:Martin Luther, 1529
Z:Public Domain
Z:Courtesy of the Cyber Hymnal™
%%score ( 1 2 ) ( 3 4 )
L:1/8
Q:1/4=110
M:4/4
K:C
V:1 treble 
V:2 treble 
V:3 bass 
V:4 bass 
V:1
 [Ec]2 | [Cc]2 [Ec]2 (GA) [GB]2 | (cB) [^FA]2 G2 [Ec]2 | [EB]2 [CA]2 [CG]2 [CA]2 | %4
w: 1.~A|might- y fort- * ress|is * our God, a|bul- wark ne- ver|
w: 2.~Did|we in our * own|strength * con- fide, our|striv- ing would be|
w: 3.~And|though this world, * with|de- * vils filled, should|threat- en to un-|
w: 4.~That|word a- bove * all|earth- * ly powers, no|thanks to them, a-|
 (FE [B,D]2) !fermata!C2 [Ec]2 | [Cc]2 [Ec]2 (GA) [EB]2 | (cB) A2 [B,G]2 [Cc]2 | %7
w: fail- * * ing; Our|help- er He, * a-|mid * the flood of|
w: los- * * ing; Were|not the right * Man|on * our side, the|
w: do * * us, We|will not fear, * for|God * hath willed His|
w: bid- * * eth; The|Spir- it and * the|gifts * are ours through|
 [EB]2 [CA]2 [CG]2 [CA]2 | (FE [B,D]2) !fermata!C2 C2 | [EG]2 [EA]2 [DG]2 ^F2 | [B,G]6 C2 | %11
w: mor- tal ills pre-|vail- * * ing: For|still our an- cient|foe doth|
w: Man of God’s own|choos- * * ing: Dost|ask who that may|be? Christ|
w: truth to tri- umph|through * * us: The|Prince of Dark- ness|grim, we|
w: Him who with us|sid- * * eth: Let|goods and kin- dred|go, this|
 [DG]2 [EG]2 [CA]2 [DB]2 | [Cc]6 [EB]2 | [Ec]2 [EB]2 [EA]2 A2 | [B,G]6 [CA]2 | %15
w: seek to work us|woe; His|craft and power are|great, and,|
w: Je- sus, it is|He; Lord|Sab- a- oth, His|Name, from|
w: trem- ble not for|him; His|rage we can en-|dure, for|
w: mor- tal life al-|so; The|bo- dy they may|kill: God’s|
 [FA]2 [EG]2 [EA]2 [DF]2 | [B,E]6 [Cc]2 | [EB]2 [CA]2 [EG]2 [EA]2 | (FE [B,D]2) C2 |] %19
w: armed with cru- el|hate, On|earth is not his|e- * * qual.|
w: age to age the|same, And|He must win the|bat- * * tle.|
w: lo, his doom is|sure, One|lit- tle word shall|fell * * him.|
w: truth a- bid- eth|still, His|king- dom is for-|ev- * * er.|
V:2
 x2 | x4 D2 x2 | E2 x G2 x3 | x8 | A,2 x C2 x3 | x4 D2 x2 | C2 (DC) x4 | x8 | A,2 x C2 C2 x | %9
 x6 (DC) | x6 C2 | x8 | x8 | x6 (DC) | x8 | x8 | x8 | x8 | A,2 x C2 x |] %19
V:3
 [C,G,]2 | [E,G,]2 [C,G,]2 [G,B,]2 [D,B,]2 | A,2 (DC) [G,B,]2 A,2 | [E,G,]2 F,2 [C,E,]2 [A,,E,]2 | %4
 ([D,F,]2 [G,,G,]2) !fermata![C,E,]2 [C,G,]2 | [E,G,]2 [C,G,]2 [G,B,]2 [E,G,]2 | %6
 [A,,E,]2 [D,^F,]2 [G,,G,]2 [A,,E,]2 | [E,G,]2 F,2 [C,E,]2 [A,,E,]2 | %8
 ([D,F,]2 G,F,) !fermata![C,E,]2 [C,E,]2 | [C,G,]2 [A,,C]2 B,2 [D,A,]2 | [G,,G,]6 [C,E,]2 | %11
 [B,,G,]2 [C,G,]2 F,2 [D,F,]2 | [A,,E,]6 [^G,,B,]2 | [A,,A,]2 [B,,^G,]2 [C,A,]2 [D,^F,]2 | %14
 [G,,G,]6 [F,,C]2 | [A,,C]2 (_CB,) [^C,A,]2 [D,A,]2 | [E,^G,]6 [A,,A,]2 | %17
 [E,G,]2 [F,A,]2 [C,C]2 [A,,C]2 | ([D,F,]2 G,F,) [C,E,]2 |] %19
V:4
 x2 | x8 | A,2 D,2 x A,2 x | x2 F,2 x4 | x8 | x8 | x8 | x2 F,2 x4 | x2 G,,2 x4 | x4 (B,,C,) x2 | %10
 x8 | x4 F,2 x2 | x8 | x8 | x8 | x2 =C,2 x4 | x8 | x8 | x2 G,,2 x2 |] %19

